X:4514
T:My Lord Byron's Maggot
Q:1/4=120
V:1
O:England
M:6/8
L:1/8
K:D
A |:"D"AFA AFA|"D"AFA A2 d |"D"dAd dAd |"D"dAd d2 d |"D"fga
"A"efg|"D"fga "A"efg |"D"fga "E"a2 ^g |"A"a3 a2:|a |"D"fdd "A"gee
|"D"fdd "A"gee |"D"fdd "G"g3/2a/g/f/ |"A"e3 e2 f/g/|"D"a2 z "A"g2 z
|"D"f2 z "A"e2 z |"D"f2 z "G"g2 z |"D"f2 z "A"e2 a |"D"f/g/ad "A"eAa


